theme-base/src/main/assets/themes/mapsforgeV3/base/patterns/glacier.svg

<svg enable-background="new 0 0 33.167 19.542" height="19.542" viewBox="0 0 33.167 19.542" width="33.167" xmlns="http://www.w3.org/2000/svg"><g fill="#8fc3dd"><path d="m5.615.794c-.894 0-.894 1.339 0 1.339s.894-1.339 0-1.339z"/><path d="m23.633 5.113c-.893 0-.893 1.339 0 1.339.893.001.893-1.339 0-1.339z"/><path d="m13.701 7.718c-.894 0-.894 1.34 0 1.34s.894-1.34 0-1.34z"/><path d="m8.776 12.721c-.894 0-.894 1.34 0 1.34.893 0 .893-1.34 0-1.34z"/><path d="m21.583 9.886c-.446 0-.446.671 0 .671s.446-.671 0-.671z"/><path d="m1.953.304c-.446 0-.446.67 0 .67s.446-.67 0-.67z"/><path d="m5.115 6.769c-.446 0-.446.669 0 .669s.447-.669 0-.669z"/><path d="m15.87 1.798c-.446 0-.446.669 0 .669.446.001.446-.669 0-.669z"/><path d="m19.345 2.855c-.446 0-.446.669 0 .669s.446-.669 0-.669z"/><path d="m16.893 4.333c-.446 0-.446.669 0 .669.446.001.446-.669 0-.669z"/><path d="m28.002 6.434c-.445 0-.445.67 0 .67.447 0 .447-.67 0-.67z"/><path d="m27.334 12.051c-.446 0-.446.67 0 .67.445 0 .445-.67 0-.67z"/><path d="m7.587 7.93c-.446 0-.446.67 0 .67s.446-.67 0-.67z"/><path d="m12.821 13.056c-.446 0-.446.671 0 .671s.446-.671 0-.671z"/><path d="m15.2 17.463c-.446 0-.446.669 0 .669s.446-.669 0-.669z"/><path d="m3.083 13.391c-.446 0-.446.67 0 .67.445 0 .445-.67 0-.67z"/><path d="m9.111.794c-.446 0-.446.669 0 .669s.447-.669 0-.669z"/><path d="m10.784 3.19c-.446 0-.446.669 0 .669s.446-.669 0-.669z"/><path d="m25.266 2.468c-.446 0-.446.669 0 .669s.446-.669 0-.669z"/><path d="m6.12 18.408c-.446 0-.446.67 0 .67s.446-.67 0-.67z"/><path d="m2.287 9.058c-.446 0-.446.669 0 .669.445 0 .445-.669 0-.669z"/><path d="m32.689 4.727c-.445 0-.445.669 0 .669.447 0 .447-.669 0-.669z"/><path d="m32.629 13.128c-.445 0-.445.669 0 .669.446 0 .446-.669 0-.669z"/><path d="m24.958 16.454c-.893 0-.893 1.34 0 1.34s.893-1.34 0-1.34z"/><path d="m19.679 14.924c-.446 0-.446.669 0 .669s.446-.669 0-.669z"/><path d="m22.671 13.463c-.446 0-.446.669 0 .669s.446-.669 0-.669z"/><path d="m20.703 17.459c-.446 0-.446.668 0 .668s.446-.668 0-.668z"/><path d="m30.03 15.998c-.445 0-.445.669 0 .669.448 0 .448-.669 0-.669z"/></g><path d="m13.771 4.333c-.615.728-1.729-2.103-4.659-.958-2.069.809-5.748.15-6.635.15" fill="none" stroke="#8fc3dd" stroke-linecap="round"/><path d="m15.87 17.87c-.681-.9-3.896-.663-7.51-1.58-2.745-.697-4.36 2.118-7.347.834" fill="none" stroke="#8fc3dd" stroke-linecap="round" stroke-width=".75"/><path d="m12.143 16.414c.335.334 1.313-.101 2.185-.973.604-.604.999-1.258 1.071-1.715" fill="none" stroke="#8fc3dd" stroke-linecap="round" stroke-width=".5"/><path d="m31.061 10.459c-.68-.9-3.781-1.58-7.51-1.58-3.483 0-6.428.594-7.347 1.408" fill="none" stroke="#8fc3dd" stroke-linecap="round" stroke-width=".75"/><path d="m27.334 9.003c.336.334 1.313-.101 2.186-.973.604-.604.998-1.258 1.07-1.715" fill="none" stroke="#8fc3dd" stroke-linecap="round" stroke-width=".5"/><path d="m23.792 9.771c.604-.605 1.067-1.597 1.139-2.055" fill="none" stroke="#8fc3dd" stroke-linecap="round" stroke-width=".5"/></svg>

<?xml version="1.0" encoding="utf-8"?>
<!-- Generator: Adobe Illustrator 14.0.0, SVG Export Plug-In . SVG Version: 6.00 Build 43363)  -->
<!DOCTYPE svg PUBLIC "-//W3C//DTD SVG 1.1//EN" "http://www.w3.org/Graphics/SVG/1.1/DTD/svg11.dtd">
<svg version="1.1" xmlns="http://www.w3.org/2000/svg" xmlns:xlink="http://www.w3.org/1999/xlink" x="0px" y="0px"
	 width="33.167px" height="19.542px" viewBox="0 0 33.167 19.542" enable-background="new 0 0 33.167 19.542" xml:space="preserve">
<g id="Vrstva_1">
	<g>
		<path fill="#8FC3DD" d="M11.119,8.388"/>
	</g>
	<path fill="#8FC3DD" d="M5.615,0.794c-0.894,0-0.894,1.339,0,1.339S6.509,0.794,5.615,0.794z"/>
	<path fill="#8FC3DD" d="M23.633,5.113c-0.893,0-0.893,1.339,0,1.339C24.526,6.453,24.526,5.113,23.633,5.113z"/>
	<path fill="#8FC3DD" d="M13.701,7.718c-0.894,0-0.894,1.34,0,1.34S14.595,7.718,13.701,7.718z"/>
	<path fill="#8FC3DD" d="M8.776,12.721c-0.894,0-0.894,1.34,0,1.34C9.669,14.061,9.669,12.721,8.776,12.721z"/>
	<path fill="#8FC3DD" d="M21.583,9.886c-0.446,0-0.446,0.671,0,0.671C22.029,10.557,22.029,9.886,21.583,9.886z"/>
	<path fill="#8FC3DD" d="M1.953,0.304c-0.446,0-0.446,0.67,0,0.67S2.399,0.304,1.953,0.304z"/>
	<path fill="#8FC3DD" d="M5.115,6.769c-0.446,0-0.446,0.669,0,0.669S5.562,6.769,5.115,6.769z"/>
	<path fill="#8FC3DD" d="M15.87,1.798c-0.446,0-0.446,0.669,0,0.669C16.316,2.468,16.316,1.798,15.87,1.798z"/>
	<path fill="#8FC3DD" d="M19.345,2.855c-0.446,0-0.446,0.669,0,0.669S19.791,2.855,19.345,2.855z"/>
	<path fill="#8FC3DD" d="M16.893,4.333c-0.446,0-0.446,0.669,0,0.669C17.339,5.003,17.339,4.333,16.893,4.333z"/>
	<path fill="#8FC3DD" d="M28.002,6.434c-0.445,0-0.445,0.67,0,0.67C28.449,7.104,28.449,6.434,28.002,6.434z"/>
	<path fill="#8FC3DD" d="M27.334,12.051c-0.446,0-0.446,0.67,0,0.67C27.779,12.721,27.779,12.051,27.334,12.051z"/>
	<path fill="#8FC3DD" d="M7.587,7.93c-0.446,0-0.446,0.67,0,0.67C8.033,8.6,8.033,7.93,7.587,7.93z"/>
	<path fill="#8FC3DD" d="M12.821,13.056c-0.446,0-0.446,0.671,0,0.671C13.267,13.727,13.267,13.056,12.821,13.056z"/>
	<path fill="#8FC3DD" d="M15.2,17.463c-0.446,0-0.446,0.669,0,0.669S15.646,17.463,15.2,17.463z"/>
	<path fill="#8FC3DD" d="M3.083,13.391c-0.446,0-0.446,0.67,0,0.67C3.528,14.061,3.528,13.391,3.083,13.391z"/>
	<path fill="#8FC3DD" d="M9.111,0.794c-0.446,0-0.446,0.669,0,0.669S9.558,0.794,9.111,0.794z"/>
	<path fill="#8FC3DD" d="M10.784,3.19c-0.446,0-0.446,0.669,0,0.669C11.23,3.859,11.23,3.19,10.784,3.19z"/>
	<path fill="#8FC3DD" d="M25.266,2.468c-0.446,0-0.446,0.669,0,0.669S25.712,2.468,25.266,2.468z"/>
	<path fill="#8FC3DD" d="M6.12,18.408c-0.446,0-0.446,0.67,0,0.67C6.566,19.078,6.566,18.408,6.12,18.408z"/>
	<path fill="#8FC3DD" d="M2.287,9.058c-0.446,0-0.446,0.669,0,0.669C2.732,9.727,2.732,9.058,2.287,9.058z"/>
	<path fill="#8FC3DD" d="M32.689,4.727c-0.445,0-0.445,0.669,0,0.669C33.136,5.396,33.136,4.727,32.689,4.727z"/>
	<path fill="#8FC3DD" d="M32.629,13.128c-0.445,0-0.445,0.669,0,0.669C33.075,13.797,33.075,13.128,32.629,13.128z"/>
	<path fill="#8FC3DD" d="M24.958,16.454c-0.893,0-0.893,1.34,0,1.34S25.851,16.454,24.958,16.454z"/>
	<path fill="#8FC3DD" d="M19.679,14.924c-0.446,0-0.446,0.669,0,0.669C20.125,15.593,20.125,14.924,19.679,14.924z"/>
	<path fill="#8FC3DD" d="M22.671,13.463c-0.446,0-0.446,0.669,0,0.669S23.117,13.463,22.671,13.463z"/>
	<path fill="#8FC3DD" d="M20.703,17.459c-0.446,0-0.446,0.668,0,0.668C21.149,18.127,21.149,17.459,20.703,17.459z"/>
	<path fill="#8FC3DD" d="M30.03,15.998c-0.445,0-0.445,0.669,0,0.669C30.478,16.667,30.478,15.998,30.03,15.998z"/>
</g>
<g id="linie">
	<path fill="none" stroke="#8FC3DD" stroke-linecap="round" d="M13.771,4.333c-0.615,0.728-1.729-2.103-4.659-0.958
		c-2.069,0.809-5.748,0.15-6.635,0.15"/>
	<g>
		<path fill="none" stroke="#8FC3DD" stroke-width="0.75" stroke-linecap="round" d="M15.87,17.87c-0.681-0.9-3.896-0.663-7.51-1.58
			C5.615,15.593,4,18.408,1.013,17.124"/>
		<path fill="none" stroke="#8FC3DD" stroke-width="0.5" stroke-linecap="round" d="M12.143,16.414
			c0.335,0.334,1.313-0.101,2.185-0.973c0.604-0.604,0.999-1.258,1.071-1.715"/>
	</g>
	<g>
		<path fill="none" stroke="#8FC3DD" stroke-width="0.75" stroke-linecap="round" d="M31.061,10.459c-0.68-0.9-3.781-1.58-7.51-1.58
			c-3.483,0-6.428,0.594-7.347,1.408"/>
		<path fill="none" stroke="#8FC3DD" stroke-width="0.5" stroke-linecap="round" d="M27.334,9.003
			c0.336,0.334,1.313-0.101,2.186-0.973c0.604-0.604,0.998-1.258,1.07-1.715"/>
	</g>
	<path fill="none" stroke="#8FC3DD" stroke-width="0.5" stroke-linecap="round" d="M23.792,9.771
		c0.604-0.605,1.067-1.597,1.139-2.055"/>
</g>
</svg>
